X:49
T:Drown Drouth
S:Petrie's Collection of Strathspey Reels and Country Dances &c., 1790
Z:Steve Wyrick , 3/20/04
N:Petrie's First Collection, page 21
L:1/8
M:6/8
R:3/2 Hornpipe
K:Bb
  F|(D/E/FD) BFE       |D2B, (D/E/FD)|ECC      C2E       |\
     DEF    (B/A/B/c/)d|D2B, (D/E/F)C| DB,B,   B,2      :|
|:F|B>cB     def       |fdB   A2F    |(A/B/c)c c2A       |\
    B>cB     fga       |b>ag  f>ed   |TcBc     B2"^Fine":|
%In my opinion this tune should be notated in 3/2! -SW
